X:1
T:Redondo, 88.88.88 D
T:Redondo, 88.88.88 D
T:James Holmes Rosecrans, 1893
T:Public Domain Courtesy of the Cyber Hymnal™
C:James Holmes Rosecrans, 1893
Z:Public Domain
Z:Courtesy of the Cyber Hymnal™
%%score ( 1 2 ) ( 3 4 )
L:1/8
Q:1/4=90
M:3/4
K:Bb
V:1 treble 
V:2 treble 
V:3 bass 
V:4 bass 
V:1
 [B,D] | [B,D][CE] [DF]3 [DB] | [CA][DB] [DF]3 [DB] | [CA][DB] [Ec]3 [EA] | [EG][EF] [DF]3 [B,D] | %5
 [B,D][CE] [DF]3 [DB] | [CA][DB] [DF]3 [DB] | [CA][DB] [Fc]3 [Fe] | [Fd][Ec] [DB]3 [DF]!fine! | %9
 [CA][DB] [Ec]3 F | [FB][Fc] [Fd]3 [Fd] | [Ge][Ge] [GB]3 [Gc] | [Fd][Fd] [Fc]3 [EF] | %13
 [CA][DB] [Ec]3 F | [FB][Fc] [Fd]3 [Fd] | [Fc][Fd] [Fc]3 [FB] | [FA][=EG] F3!D.C.! |] %17
V:2
 x | x6 | x6 | x6 | x6 | x6 | x6 | x6 | x6 | x5 F | x6 | x6 | x6 | x5 F | x6 | x6 | x2 F3 |] %17
V:3
 [B,,F,] | [B,,F,][B,,F,] [B,,B,]3 [B,,F,] | [B,,F,][B,,F,] [B,,B,]3 [B,,B,] | %3
 [F,C][F,B,] [F,A,]3 [F,C] | [B,,B,][B,,B,] [B,,B,]3 [B,,F,] | [B,,F,][B,,F,] [B,,B,]3 [B,,F,] | %6
 [B,,F,][B,,F,] [B,,B,]3 [B,,B,] | [F,C][F,B,] [F,A,]3 [F,C] | [F,B,]F, [B,,F,]3 [B,,B,] | %9
 [F,C][F,B,] [F,A,]3 [E,C] | [D,B,][F,A,] B,3 B, | [E,B,][E,B,] [E,B,]3 [E,G,] | %12
 [B,,B,][B,,B,] [F,A,]3 [F,A,] | [F,C][F,B,] [F,A,]3 [F,C] | [D,B,][F,A,] B,3 B, | %15
 [F,A,][F,B,] [F,A,]3 [B,,D] | [C,C][C,B,] [F,A,]3 |] %17
V:4
 x | x6 | x6 | x6 | x6 | x6 | x6 | x6 | x F, x4 | x6 | x2 B,3 B, | x6 | x6 | x6 | x2 B,3 B, | x6 | %16
 x5 |] %17

